X:198
%%pagewidth 9in
%%vocalfont Baskerville10Pro 14
T:A health to Betty
M:6/8
L:1/8
K:Bb
%%score 1 2
V:1 clef-treble
V:2 clef-bass octave=-1
%%%%pos vol below
[V:1]G|(G>A)G ^F2D|[GB]3 [^FA]2d|(d>e)d [Ac]2[FA] & =F2x4|([Bf]3[Bd]2)[Ae]|
w:One morn-*ing bright, for my delight, In-to* the fields I walked,* There
w:It seem'd* to me they could~not agree A-bout* some pret-ty bargain,* He
[V:2]z|B3 A3 & G3 D3|G,3 D,2z|B3 F2E|D3 B,2C|
[V:1][Bf]d2 (B>c)d & x3D2x|[Ec]2A [D^F]2F|G>A[CG] [D^F]2D|[GB]3 [^FA]2 :||
w:did I see* a lad, and he* With a fair maid-en talk-ed.
w:offer'd a groat,* but still her note Was four-*pence-half-penny-far-thing.
[V:2]D3G3|C3D3|B2x4 &E3D3|G,3D,2:||

